assets/images/footer-phone.svg

<svg width="27" height="27" viewBox="0 0 27 27" fill="none" xmlns="http://www.w3.org/2000/svg">
<path fill-rule="evenodd" clip-rule="evenodd" d="M13.5 0C6.04416 0 0 6.04416 0 13.5C0 20.9558 6.04416 27 13.5 27C20.9558 27 27 20.9558 27 13.5C27 6.04416 20.9558 0 13.5 0ZM9.44311 6.75C9.48306 6.78168 9.51475 6.78168 9.54643 6.77755C9.71036 6.76378 9.85087 6.80373 9.94179 6.95388L9.99002 7.03205C10.178 7.33666 10.3662 7.64182 10.5452 7.954C10.6747 8.17972 10.7983 8.4091 10.922 8.63872C11.0127 8.80709 11.1035 8.97559 11.1968 9.14285C11.2329 9.21065 11.278 9.27451 11.3231 9.33839C11.3486 9.37444 11.374 9.41051 11.3979 9.44729C11.4554 9.53878 11.5104 9.63275 11.5641 9.72449L11.5728 9.73933C11.6886 9.95837 11.683 10.1788 11.5109 10.3537C11.3296 10.5391 11.1348 10.7146 10.9403 10.8899C10.8717 10.9517 10.8032 11.0134 10.7353 11.0756C10.6509 11.153 10.5653 11.2292 10.4797 11.3054C10.3445 11.4257 10.2094 11.5459 10.0796 11.6707C9.91424 11.8305 9.87154 12.0302 9.98312 12.241L10.0142 12.2992C10.1759 12.6021 10.3375 12.9047 10.5149 13.2012C11.2147 14.368 12.1087 15.3598 13.2383 16.1244C13.6736 16.4206 14.1269 16.692 14.5842 16.9509C15.0154 17.1948 15.1835 17.1534 15.5182 16.7801C15.695 16.5838 15.8683 16.3856 16.0417 16.1872C16.1737 16.0363 16.3059 15.8851 16.4398 15.7345C16.5142 15.6505 16.6037 15.5761 16.6905 15.5045C16.8669 15.3557 17.0597 15.3392 17.2622 15.4411C17.2749 15.4473 17.2878 15.4534 17.3007 15.4594C17.3454 15.4804 17.3905 15.5015 17.4289 15.5293C17.7881 15.7863 18.1757 15.9927 18.5627 16.199C18.7546 16.3012 18.9463 16.4033 19.1343 16.5115C19.3282 16.6229 19.5187 16.7393 19.7088 16.8555C19.8171 16.9217 19.9253 16.9878 20.0339 17.0529C20.1951 17.1479 20.2598 17.2871 20.2488 17.4786C20.2185 18.0172 20.129 18.5462 19.8162 19.0008C19.6854 19.1895 19.4994 19.3548 19.3121 19.4884C18.7927 19.8521 18.2127 20.0767 17.5956 20.2144C17.0349 20.3398 16.4756 20.2943 15.9384 20.1263C14.9011 19.8066 13.8789 19.4402 12.938 18.8851C12.0839 18.3795 11.307 17.7692 10.5879 17.0873C9.6773 16.2208 8.86453 15.2758 8.20743 14.1999C7.779 13.5015 7.47318 12.7493 7.19629 11.982C7.02822 11.5192 6.86292 11.0604 6.78853 10.57C6.70312 10.0149 6.76235 9.48035 6.94006 8.95412C7.09986 8.47886 7.29961 8.02425 7.6013 7.61787C7.83824 7.30241 8.13442 7.07098 8.51738 6.96766C8.7338 6.9104 8.95159 6.86134 9.1693 6.81231C9.26062 6.79174 9.35193 6.77117 9.44311 6.75Z" fill="white"/>
</svg>

<svg xmlns="http://www.w3.org/2000/svg" width="27" height="27" fill="none"><path fill="#fff" fill-rule="evenodd" d="M13.5 0C6.044 0 0 6.044 0 13.5S6.044 27 13.5 27 27 20.956 27 13.5 20.956 0 13.5 0ZM9.443 6.75c.04.032.072.032.103.028.164-.014.305.026.396.176l.048.078c.188.305.376.61.555.922.13.226.253.455.377.685.09.168.181.337.275.504.036.068.081.132.126.195.026.036.051.073.075.11.057.09.112.185.166.276l.009.015c.116.22.11.44-.062.615-.181.185-.376.36-.57.536-.07.062-.138.123-.206.186l-.255.23c-.136.12-.27.24-.4.365-.166.16-.208.36-.097.57l.031.058c.162.303.324.606.5.902.7 1.167 1.595 2.159 2.724 2.923.436.297.889.568 1.346.827.431.244.6.202.934-.17.177-.197.35-.395.524-.594.132-.15.264-.302.398-.453.074-.084.164-.158.25-.23a.485.485 0 0 1 .572-.063l.039.018c.044.021.09.043.128.07.36.257.747.464 1.134.67.192.102.383.204.571.313.194.11.385.227.575.343.108.067.216.133.325.198.161.095.226.234.215.426-.03.538-.12 1.067-.433 1.522-.13.188-.317.354-.504.487-.52.364-1.1.589-1.716.726-.561.126-1.12.08-1.658-.088-1.037-.32-2.06-.686-3-1.24a13.184 13.184 0 0 1-2.35-1.799c-.91-.866-1.723-1.811-2.38-2.887-.429-.698-.735-1.45-1.012-2.218-.168-.463-.333-.922-.407-1.412a3.367 3.367 0 0 1 .151-1.616c.16-.475.36-.93.661-1.336.237-.316.533-.547.916-.65.217-.058.435-.107.652-.156.092-.02.183-.04.274-.062Z" clip-rule="evenodd"/></svg>
